X:234
T: Nongyie jijiehua zaolaidao
N: C1719
O: China, Hunan, Zhuzhou
S: I, 508]
R: Xiaodiao, Naowugeng, Erge. Xin minge]
M: 2/4
L: 1/16
K: F
c2A2A2c2 | A4z4
D2F2A2F2 | D4z4
A3cA2A2 | F2c2A4
c2F2A2A2 | D2c2A2A2 | D2F2A2F2 | D8
F2A2D2F2 | A4z4
D2F2A2F2 | D4z4
A3cA4
F3cA4
c2F2A2z2
D2c2A2z2
c2F2A2A2 | D2c2A2A2 | D3FA2F2 | D8
F2A2D2F2 | A4z4
D2F2A2F2 | D4z4
F2A2D2F2 | A8
D2F2A2F2 | D8
A3cA4 | F2c2A4
c2F2A2AA | D2c2A2AA | D3FA2F2 | D8

